X:25
T:Abbeyleix
M:4/4
L:1/8
C:Sean Ryan (but which one)
S:Brendan McGlinchey
N:Posed to Ir-Trad
K:DDor
D2ED CA, (3A,A,A,|FEFG AB (3cBA|d2ed cAdc|AcGE EDDC|\
D2ED CA, (3A,A,A,|FEFG AB (3cBA|d2ed cAdc|AcGE ED D2::\
K:D
d2fd adfd|g2fg eABc|dDcD BDAF|GEFD EA,A,A|d2fd adfd|\
g2fg eABc|dDcD BDAF|GBAG FD D2:|
